X:9
T:Cronin's Hornpipe
R:hornpipe
M:4/4
L:1/8
K:G
|: BA | GABd dBde | gage dega | bage dBGA | BAAG AcBA |
GABd dBde | gage dega | bage dBAB | G2GF G2 ::
fg | afd^c dega | beed e2ga | bgaf gedB | BAAG AcBA |
GABd dBde | gage dega | bage dBAB | G2GF G2 :|
